epam-assets/icon-sources/18/editor-chart-line.svg

<svg width="18" height="18" viewBox="0 0 18 18" fill="none" xmlns="http://www.w3.org/2000/svg">
<g id="18/editor-chart-line">
<path id="icon" fill-rule="evenodd" clip-rule="evenodd" d="M12 8.835L15.18 3.3375L16.4775 4.0875L12.555 10.875L7.6725 8.0625L4.095 14.25H16.5V15.75H1.5V2.25H3V13.155L7.125 6L12 8.835Z" fill="#6C6F80"/>
</g>
</svg>

<svg xmlns="http://www.w3.org/2000/svg" width="18" height="18" fill="none" viewBox="0 0 18 18">
  <path fill="#6C6F80" fill-rule="evenodd" d="m12 8.835 3.18-5.498 1.297.75-3.922 6.788-4.882-2.813-3.578 6.188H16.5v1.5h-15V2.25H3v10.905L7.125 6 12 8.835Z" clip-rule="evenodd"/>
</svg>
